svg/fluentui-system-icons/ic_fluent_projection_screen_16_regular.svg

<svg width="16" height="16" viewBox="0 0 16 16" fill="none" xmlns="http://www.w3.org/2000/svg">
<path d="M3 2C2.44772 2 2 2.44772 2 3C2 3.55228 2.44772 4 3 4L3 8.5C3 9.88071 4.11929 11 5.5 11H7.5V13H5.5C5.22386 13 5 13.2239 5 13.5C5 13.7761 5.22386 14 5.5 14H10.5C10.7761 14 11 13.7761 11 13.5C11 13.2239 10.7761 13 10.5 13H8.5V11H10.5C11.8807 11 13 9.88071 13 8.5V4C13.5523 4 14 3.55228 14 3C14 2.44772 13.5523 2 13 2H3ZM4 4H12V8.5C12 9.32843 11.3284 10 10.5 10H5.5C4.67157 10 4 9.32843 4 8.5V4Z" fill="#212121"/>
</svg>

<svg xmlns="http://www.w3.org/2000/svg" width="16" height="16"><path d="M3 2a1 1 0 0 0 0 2v4.5A2.5 2.5 0 0 0 5.5 11h2v2h-2a.5.5 0 0 0 0 1h5a.5.5 0 0 0 0-1h-2v-2h2A2.5 2.5 0 0 0 13 8.5V4a1 1 0 1 0 0-2H3Zm1 2h8v4.5a1.5 1.5 0 0 1-1.5 1.5h-5A1.5 1.5 0 0 1 4 8.5V4Z"/></svg>
